!!!COM: Mozart
!!!OTL: Zwolf Variationen in Es, uber die Romanze 'Je suis Lindor' aus der Komodie 'Le Barbier de Seville'
!!!Variation: Variation 12 c
**function	**harm	**kern	**kern
*	*	*clefF4	*clefG2
*	*	*k[b-e-a-]	*k[b-e-a-]
*M3/4	*M3/4	*M3/4	*M3/4
*E-:	*E-:	*E-:	*E-:
=273	=273	=273	=273
*	*	*	*^
2D	2V	8BBB-L	4d 4f	4r
.	.	8BB-J	.	.
.	.	8DDL	4.d 4.f	2B-
.	.	8BB-J	.	.
4D	4V7	8BBB-L	.	.
.	.	8BB-J	8f 8a-	.
=274	=274	=274	=274	=274
2.D	2.I	8EE-L	(8fL 8a-	4B-
.	.	8BB-J	8e-J) 8g	.
.	.	8GGL	4e- 4g	4B-
.	.	8BB-J	.	.
.	.	8EE-L	8r	4r
.	.	8BB-J	8b-	.
=275	=275	=275	=275	=275
2D	2V7	8BBB-L	(8b-L	4B-
.	.	8BB-J	8dJ) 8f	.
.	.	8DDL	4.d 4.f	2B-
.	.	8BB-J	.	.
4D	4V7	8BBB-L	.	.
.	.	8BB-J	8f 8a-	.
=276	=276	=276	=276	=276
2.D	2.I	8EE-L	(8fL 8a-	4B-
.	.	8BB-J	8e-J) 8g	.
.	.	8GGL	4e- 4g	4B-
.	.	8BB-J	.	.
.	.	8EE-L	8r	4r
.	.	8BB-J	8b-	.
=277	=277	=277	=277	=277
2.D	2.V7	4BBB- 4BB-	(8ee-L	4f 4a-
.	.	.	8ddJ)	.
.	.	4BB-	4dd	4f 4a-
.	.	4r	(8ccL	4r
.	.	.	8b-J)	.
=278	=278	=278	=278	=278
2.D	2.V7d	4AAA- 4AA-	(8ee-L	4f 4b-
.	.	.	8ddJ)	.
.	.	4AA-	4dd	4f 4b-
.	.	4r	4r	4r
*	*	*	*v	*v
=279	=279	=279	=279
2T	2Ib	4G 4e-	(8ee-L
.	.	.	8ddJ
.	.	4r	8ee-L)
.	.	.	8b-'J
4P	4IV	4A- 4e-	(8ccL
.	.	.	8a-J)
=280	=280	=280	=280
2D	2Cc	4B- 4e-	(8gL
.	.	.	8b-J
.	.	4r	8e-L)
.	.	.	8g'J
4D	4V7	4BB- 4F 4A-	(8fL
.	.	.	8dJ)
=281	=281	=281	=281
2.T	2.I	4E- 4G	(8e-L
.	.	.	8gJ)
.	.	4r	8b-'L
.	.	.	8g'J
.	.	4r	8b-'L
.	.	.	8ee-'J
*-	*-	*-	*-
